elide/assets/src/img-logoTextColor.svg

<svg clip-rule="evenodd" fill-rule="evenodd" stroke-linejoin="round" stroke-miterlimit="2" viewBox="0 0 100 60" xmlns="http://www.w3.org/2000/svg"><path d="m360 155c0-9.177-3.532-17.53-9.311-23.772-17.846-12.997-32.591 45.796-25.688 55.34 6.641 0 11.381-.396 18.14-1.63 10.107-6.138 16.859-17.249 16.859-29.938z" fill="#01b7ff" transform="matrix(.25213209868 0 0 .25213209868 -51.6744369868 -8.905136088)"/><path d="m320.345 150.001s21.558-24.172 18.062-27.341c-4.129-1.714-8.658-2.66-13.407-2.66h-35l.001 30.001z" fill="#ffcc45" transform="matrix(.25213209868 0 0 .25213209868 -51.6744369868 -8.905136088)"/><path d="m322.286 482.574 34.571-19.531c3.28 1.361 6.208 3.399 8.608 5.942l.169.18-33.341 41.98h-10.007z" fill="#fc593d" transform="matrix(.35298670308 0 0 .35298670308 -92.31829102 -141.427292052)"/><path d="m336.534 510.312 16.704-25.6 7.664-9.672c-9.004 11.223-8.867 31.51-.658 32.489-3.779 2.295-8.214 3.616-12.958 3.616h-3.411z" transform="matrix(.35298670308 0 0 .35298670308 -92.31829102 -141.427292052)"/><path d="m352.993 173.199c22.929-13.762 31.968-15.118 37.007-12.973v-16.717s-17.421 13.977-37.007 29.69z" fill="#fff" transform="matrix(0 .25213209868 .25213209868 0 -11.333135736 -59.3318205632)"/><circle cx="25.90018777544" cy="31.79329696144" r="1.61771328063" stroke-width=".32687679948"/><g fill-rule="nonzero"><path d="m.068 0v-.7h.239c.082 0 .149.014.203.043.053.03.092.07.118.122.025.053.038.114.038.185s-.013.132-.038.184c-.026.053-.065.093-.118.122-.054.029-.121.044-.203.044zm.128-.11h.105c.059 0 .105-.01.139-.029s.058-.046.073-.082c.015-.035.022-.078.022-.129 0-.05-.007-.093-.022-.129s-.039-.064-.073-.083-.08-.029-.139-.029h-.105z" transform="matrix(10.0852852755 0 0 10.0852852755 45.122892565 28.261279435)"/><path d="m.306.012c-.05 0-.094-.011-.133-.032s-.069-.051-.091-.09-.033-.083-.033-.134.011-.097.033-.137c.021-.04.051-.071.09-.094.038-.022.083-.033.135-.033.049 0 .092.011.129.032s.066.05.088.087c.021.037.031.079.031.124v.023c-.001.008-.001.016-.002.025h-.377c.003.039.016.069.041.091.024.022.053.033.088.033.026 0 .048-.006.066-.018.017-.011.03-.026.039-.045h.13c-.009.031-.025.06-.046.085-.022.026-.049.046-.08.061-.032.015-.068.022-.108.022zm.001-.416c-.031 0-.059.009-.083.026-.024.018-.039.045-.046.081h.247c-.002-.033-.014-.059-.036-.078s-.049-.029-.082-.029z" transform="matrix(10.0852852755 0 0 10.0852852755 52.293226747 28.261279435)"/><path d="m.27.012c-.044 0-.083-.007-.116-.022-.033-.014-.06-.034-.08-.059s-.032-.055-.036-.088h.129c.004.019.015.036.033.049.017.014.04.021.068.021s.049-.006.062-.017.019-.024.019-.039c0-.021-.009-.036-.028-.044-.019-.007-.045-.015-.078-.022-.021-.005-.043-.01-.065-.017s-.042-.015-.06-.026c-.019-.01-.034-.023-.045-.04-.011-.016-.017-.036-.017-.06 0-.044.018-.081.053-.111.034-.03.084-.045.147-.045.059 0 .106.014.141.041s.055.065.062.113h-.121c-.007-.037-.035-.055-.083-.055-.024 0-.042.005-.055.014s-.02.021-.02.035c0 .015.01.026.029.035s.045.017.077.024c.035.008.067.017.096.026.029.01.052.024.069.043s.026.047.026.082c.001.031-.007.058-.024.083s-.041.044-.072.058-.068.021-.111.021z" transform="matrix(10.0852852755 0 0 10.0852852755 58.323998335 28.261279435)"/><path d="m.134-.573c-.023 0-.042-.007-.057-.021s-.023-.032-.023-.053.008-.039.023-.053c.015-.013.034-.02.057-.02s.043.007.058.02c.014.014.022.032.022.053s-.008.039-.022.053c-.015.014-.035.021-.058.021zm-.064.573v-.496h.128v.496z" transform="matrix(10.0852852755 0 0 10.0852852755 63.61929091 28.261279435)"/><path d="m.332.232c-.042 0-.082-.007-.121-.021s-.071-.036-.098-.065-.043-.067-.048-.114h.127c.006.028.022.05.047.066.025.015.055.023.09.023.038 0 .071-.012.099-.035.027-.024.041-.061.041-.11v-.062c-.015.024-.036.045-.064.062-.029.018-.064.027-.107.027-.047 0-.09-.011-.127-.034s-.067-.053-.089-.092c-.022-.038-.033-.081-.033-.13s.011-.092.033-.131c.022-.038.052-.068.09-.091.037-.022.079-.033.126-.033.038 0 .072.008.101.023.029.016.053.036.07.059l.013-.07h.115v.465c0 .057-.012.106-.036.145s-.056.068-.096.088c-.041.02-.085.03-.133.03zm-.008-.34c.028 0 .053-.006.075-.019.021-.013.038-.03.051-.052.012-.022.018-.046.018-.073 0-.042-.013-.077-.04-.104s-.061-.04-.104-.04-.077.013-.104.04-.04.062-.04.103c0 .027.006.052.018.074s.029.039.051.052c.021.013.046.019.075.019z" transform="matrix(10.0852852755 0 0 10.0852852755 66.311878795 28.261279435)"/><path d="m.065 0v-.496h.113l.01.084c.015-.029.038-.053.067-.07s.063-.026.102-.026c.061 0 .109.019.143.058s.051.095.051.17v.28h-.128v-.268c0-.043-.009-.075-.026-.098s-.044-.034-.081-.034c-.036 0-.065.013-.088.038s-.035.061-.035.106v.256z" transform="matrix(10.0852852755 0 0 10.0852852755 72.99840691 28.261279435)"/><path d="m.293.012c-.047 0-.088-.011-.125-.034s-.066-.054-.087-.093-.032-.084-.032-.134.011-.094.032-.134c.021-.039.05-.069.087-.092.037-.022.078-.033.125-.033.037 0 .07.007.098.021s.051.034.068.059l.007-.068h.121v.496h-.12l-.008-.071c-.016.022-.037.041-.063.058-.027.017-.061.025-.103.025zm.027-.112c.041 0 .075-.014.102-.042.026-.027.039-.063.039-.106s-.013-.079-.039-.107c-.027-.027-.061-.041-.102-.041s-.074.014-.101.041-.04.063-.04.106.013.079.04.107.06.042.101.042z" transform="matrix(10.0852852755 0 0 10.0852852755 45.122892565 38.346955507)"/><path d="m.286 0c-.052 0-.094-.013-.125-.038s-.047-.07-.047-.135v-.216h-.085v-.107h.085l.015-.133h.113v.133h.134v.107h-.134v.217c0 .024.005.04.016.049.01.009.028.014.053.014h.062v.109z" transform="matrix(10.0852852755 0 0 10.0852852755 51.698434474 38.346955507)"/><path d="m.338.012c-.051 0-.098-.01-.139-.031-.041-.02-.074-.051-.098-.092-.025-.041-.037-.094-.037-.157v-.432h.128v.433c0 .055.013.095.04.122.026.027.062.04.109.04.046 0 .082-.013.109-.04s.04-.067.04-.122v-.433h.128v.432c0 .063-.013.116-.038.157s-.059.072-.101.092c-.043.021-.09.031-.141.031z" transform="matrix(10.0852852755 0 0 10.0852852755 58.344319753 38.346955507)"/><path d="m.385.012c-.071 0-.131-.015-.182-.046-.051-.03-.09-.072-.117-.127-.027-.054-.041-.117-.041-.188s.014-.134.041-.189.066-.097.117-.128.111-.046.182-.046c.084 0 .153.021.207.062.053.042.087.101.1.176h-.141c-.009-.038-.027-.068-.055-.09-.029-.021-.066-.032-.113-.032-.065 0-.115.022-.152.066s-.055.104-.055.181.018.137.055.18c.037.044.087.066.152.066.047 0 .084-.01.113-.031.028-.02.046-.048.055-.084h.141c-.013.072-.047.128-.1.169-.054.041-.123.061-.207.061z" transform="matrix(10.0852852755 0 0 10.0852852755 65.212959037 38.346955507)"/><path d="m73.33092627273 31.28725581415h1.29091651526v7.05969969285h-1.29091651526z" stroke-width="10.0852852755"/></g></svg>

<?xml version="1.0" encoding="UTF-8" standalone="no"?>
<!DOCTYPE svg PUBLIC "-//W3C//DTD SVG 1.1//EN" "http://www.w3.org/Graphics/SVG/1.1/DTD/svg11.dtd">
<svg width="100%" height="100%" viewBox="0 0 100 60" version="1.1" xmlns="http://www.w3.org/2000/svg" xmlns:xlink="http://www.w3.org/1999/xlink" xml:space="preserve" xmlns:serif="http://www.serif.com/" style="fill-rule:evenodd;clip-rule:evenodd;stroke-linejoin:round;stroke-miterlimit:2;">
    <g transform="matrix(0.110308,0,0,0.110308,-54.4479,-54.5411)">
        <g transform="matrix(2.28571,0,0,2.28571,25.1429,413.714)">
            <path d="M360,155C360,145.823 356.468,137.47 350.689,131.228C332.843,118.231 318.098,177.024 325.001,186.568C331.642,186.568 336.382,186.172 343.141,184.938C353.248,178.8 360,167.689 360,155Z" style="fill:rgb(1,183,255);"/>
        </g>
        <g transform="matrix(2.28571,0,0,2.28571,25.1429,413.714)">
            <path d="M320.345,150.001C320.345,150.001 341.903,125.829 338.407,122.66C334.278,120.946 329.749,120 325,120L290,120L290.001,150.001L320.345,150.001Z" style="fill:rgb(255,204,69);"/>
        </g>
        <g transform="matrix(3.20001,0,0,3.20001,-343.315,-787.669)">
            <path d="M322.286,482.574L356.857,463.043C360.137,464.404 363.065,466.442 365.465,468.985L365.634,469.165L332.293,511.145L322.286,511.145L322.286,482.574Z" style="fill:rgb(252,89,61);"/>
        </g>
        <g transform="matrix(3.20001,0,0,3.20001,-343.315,-787.669)">
            <path d="M336.534,510.312L353.238,484.712L360.902,475.04C351.898,486.263 352.035,506.55 360.244,507.529C356.465,509.824 352.03,511.145 347.286,511.145L343.875,511.145L336.534,510.312Z"/>
        </g>
        <g transform="matrix(-2.45002e-15,2.28571,2.28571,2.45002e-15,390.858,-43.4304)">
            <path d="M352.993,173.199C375.922,159.437 384.961,158.081 390,160.226L390,143.509C390,143.509 372.579,157.486 352.993,173.199Z" style="fill:white;"/>
        </g>
        <g transform="matrix(2.96331,0,0,2.96331,665.937,576.607)">
            <circle cx="21.078" cy="69.537" r="4.949"/>
        </g>
    </g>
    <g transform="matrix(0.781593,0,0,0.781593,-237.974,-160.724)">
        <g transform="matrix(12.9035,0,0,12.9035,362.205,241.795)">
            <path d="M0.068,0L0.068,-0.7L0.307,-0.7C0.389,-0.7 0.456,-0.686 0.51,-0.657C0.563,-0.627 0.602,-0.587 0.628,-0.535C0.653,-0.482 0.666,-0.421 0.666,-0.35C0.666,-0.279 0.653,-0.218 0.628,-0.166C0.602,-0.113 0.563,-0.073 0.51,-0.044C0.456,-0.015 0.389,0 0.307,0L0.068,0ZM0.196,-0.11L0.301,-0.11C0.36,-0.11 0.406,-0.12 0.44,-0.139C0.474,-0.158 0.498,-0.185 0.513,-0.221C0.528,-0.256 0.535,-0.299 0.535,-0.35C0.535,-0.4 0.528,-0.443 0.513,-0.479C0.498,-0.515 0.474,-0.543 0.44,-0.562C0.406,-0.581 0.36,-0.591 0.301,-0.591L0.196,-0.591L0.196,-0.11Z" style="fill-rule:nonzero;"/>
        </g>
        <g transform="matrix(12.9035,0,0,12.9035,371.379,241.795)">
            <path d="M0.306,0.012C0.256,0.012 0.212,0.001 0.173,-0.02C0.134,-0.041 0.104,-0.071 0.082,-0.11C0.06,-0.149 0.049,-0.193 0.049,-0.244C0.049,-0.295 0.06,-0.341 0.082,-0.381C0.103,-0.421 0.133,-0.452 0.172,-0.475C0.21,-0.497 0.255,-0.508 0.307,-0.508C0.356,-0.508 0.399,-0.497 0.436,-0.476C0.473,-0.455 0.502,-0.426 0.524,-0.389C0.545,-0.352 0.555,-0.31 0.555,-0.265C0.555,-0.258 0.555,-0.25 0.555,-0.242C0.554,-0.234 0.554,-0.226 0.553,-0.217L0.176,-0.217C0.179,-0.178 0.192,-0.148 0.217,-0.126C0.241,-0.104 0.27,-0.093 0.305,-0.093C0.331,-0.093 0.353,-0.099 0.371,-0.111C0.388,-0.122 0.401,-0.137 0.41,-0.156L0.54,-0.156C0.531,-0.125 0.515,-0.096 0.494,-0.071C0.472,-0.045 0.445,-0.025 0.414,-0.01C0.382,0.005 0.346,0.012 0.306,0.012ZM0.307,-0.404C0.276,-0.404 0.248,-0.395 0.224,-0.378C0.2,-0.36 0.185,-0.333 0.178,-0.297L0.425,-0.297C0.423,-0.33 0.411,-0.356 0.389,-0.375C0.367,-0.394 0.34,-0.404 0.307,-0.404Z" style="fill-rule:nonzero;"/>
        </g>
        <g transform="matrix(12.9035,0,0,12.9035,379.095,241.795)">
            <path d="M0.27,0.012C0.226,0.012 0.187,0.005 0.154,-0.01C0.121,-0.024 0.094,-0.044 0.074,-0.069C0.054,-0.094 0.042,-0.124 0.038,-0.157L0.167,-0.157C0.171,-0.138 0.182,-0.121 0.2,-0.108C0.217,-0.094 0.24,-0.087 0.268,-0.087C0.296,-0.087 0.317,-0.093 0.33,-0.104C0.343,-0.115 0.349,-0.128 0.349,-0.143C0.349,-0.164 0.34,-0.179 0.321,-0.187C0.302,-0.194 0.276,-0.202 0.243,-0.209C0.222,-0.214 0.2,-0.219 0.178,-0.226C0.156,-0.233 0.136,-0.241 0.118,-0.252C0.099,-0.262 0.084,-0.275 0.073,-0.292C0.062,-0.308 0.056,-0.328 0.056,-0.352C0.056,-0.396 0.074,-0.433 0.109,-0.463C0.143,-0.493 0.193,-0.508 0.256,-0.508C0.315,-0.508 0.362,-0.494 0.397,-0.467C0.432,-0.44 0.452,-0.402 0.459,-0.354L0.338,-0.354C0.331,-0.391 0.303,-0.409 0.255,-0.409C0.231,-0.409 0.213,-0.404 0.2,-0.395C0.187,-0.386 0.18,-0.374 0.18,-0.36C0.18,-0.345 0.19,-0.334 0.209,-0.325C0.228,-0.316 0.254,-0.308 0.286,-0.301C0.321,-0.293 0.353,-0.284 0.382,-0.275C0.411,-0.265 0.434,-0.251 0.451,-0.232C0.468,-0.213 0.477,-0.185 0.477,-0.15C0.478,-0.119 0.47,-0.092 0.453,-0.067C0.436,-0.042 0.412,-0.023 0.381,-0.009C0.35,0.005 0.313,0.012 0.27,0.012Z" style="fill-rule:nonzero;"/>
        </g>
        <g transform="matrix(12.9035,0,0,12.9035,385.87,241.795)">
            <path d="M0.134,-0.573C0.111,-0.573 0.092,-0.58 0.077,-0.594C0.062,-0.608 0.054,-0.626 0.054,-0.647C0.054,-0.668 0.062,-0.686 0.077,-0.7C0.092,-0.713 0.111,-0.72 0.134,-0.72C0.157,-0.72 0.177,-0.713 0.192,-0.7C0.206,-0.686 0.214,-0.668 0.214,-0.647C0.214,-0.626 0.206,-0.608 0.192,-0.594C0.177,-0.58 0.157,-0.573 0.134,-0.573ZM0.07,0L0.07,-0.496L0.198,-0.496L0.198,0L0.07,0Z" style="fill-rule:nonzero;"/>
        </g>
        <g transform="matrix(12.9035,0,0,12.9035,389.315,241.795)">
            <path d="M0.332,0.232C0.29,0.232 0.25,0.225 0.211,0.211C0.172,0.197 0.14,0.175 0.113,0.146C0.086,0.117 0.07,0.079 0.065,0.032L0.192,0.032C0.198,0.06 0.214,0.082 0.239,0.098C0.264,0.113 0.294,0.121 0.329,0.121C0.367,0.121 0.4,0.109 0.428,0.086C0.455,0.062 0.469,0.025 0.469,-0.024L0.469,-0.086C0.454,-0.062 0.433,-0.041 0.405,-0.024C0.376,-0.006 0.341,0.003 0.298,0.003C0.251,0.003 0.208,-0.008 0.171,-0.031C0.134,-0.054 0.104,-0.084 0.082,-0.123C0.06,-0.161 0.049,-0.204 0.049,-0.253C0.049,-0.302 0.06,-0.345 0.082,-0.384C0.104,-0.422 0.134,-0.452 0.172,-0.475C0.209,-0.497 0.251,-0.508 0.298,-0.508C0.336,-0.508 0.37,-0.5 0.399,-0.485C0.428,-0.469 0.452,-0.449 0.469,-0.426L0.482,-0.496L0.597,-0.496L0.597,-0.031C0.597,0.026 0.585,0.075 0.561,0.114C0.537,0.153 0.505,0.182 0.465,0.202C0.424,0.222 0.38,0.232 0.332,0.232ZM0.324,-0.108C0.352,-0.108 0.377,-0.114 0.399,-0.127C0.42,-0.14 0.437,-0.157 0.45,-0.179C0.462,-0.201 0.468,-0.225 0.468,-0.252C0.468,-0.294 0.455,-0.329 0.428,-0.356C0.401,-0.383 0.367,-0.396 0.324,-0.396C0.281,-0.396 0.247,-0.383 0.22,-0.356C0.193,-0.329 0.18,-0.294 0.18,-0.253C0.18,-0.226 0.186,-0.201 0.198,-0.179C0.21,-0.157 0.227,-0.14 0.249,-0.127C0.27,-0.114 0.295,-0.108 0.324,-0.108Z" style="fill-rule:nonzero;"/>
        </g>
        <g transform="matrix(12.9035,0,0,12.9035,397.87,241.795)">
            <path d="M0.065,0L0.065,-0.496L0.178,-0.496L0.188,-0.412C0.203,-0.441 0.226,-0.465 0.255,-0.482C0.284,-0.499 0.318,-0.508 0.357,-0.508C0.418,-0.508 0.466,-0.489 0.5,-0.45C0.534,-0.411 0.551,-0.355 0.551,-0.28L0.551,0L0.423,0L0.423,-0.268C0.423,-0.311 0.414,-0.343 0.397,-0.366C0.38,-0.389 0.353,-0.4 0.316,-0.4C0.28,-0.4 0.251,-0.387 0.228,-0.362C0.205,-0.337 0.193,-0.301 0.193,-0.256L0.193,0L0.065,0Z" style="fill-rule:nonzero;"/>
        </g>
        <g transform="matrix(12.9035,0,0,12.9035,362.205,254.699)">
            <path d="M0.293,0.012C0.246,0.012 0.205,0.001 0.168,-0.022C0.131,-0.045 0.102,-0.076 0.081,-0.115C0.06,-0.154 0.049,-0.199 0.049,-0.249C0.049,-0.299 0.06,-0.343 0.081,-0.383C0.102,-0.422 0.131,-0.452 0.168,-0.475C0.205,-0.497 0.246,-0.508 0.293,-0.508C0.33,-0.508 0.363,-0.501 0.391,-0.487C0.419,-0.473 0.442,-0.453 0.459,-0.428L0.466,-0.496L0.587,-0.496L0.587,0L0.467,0L0.459,-0.071C0.443,-0.049 0.422,-0.03 0.396,-0.013C0.369,0.004 0.335,0.012 0.293,0.012ZM0.32,-0.1C0.361,-0.1 0.395,-0.114 0.422,-0.142C0.448,-0.169 0.461,-0.205 0.461,-0.248C0.461,-0.291 0.448,-0.327 0.422,-0.355C0.395,-0.382 0.361,-0.396 0.32,-0.396C0.279,-0.396 0.246,-0.382 0.219,-0.355C0.192,-0.328 0.179,-0.292 0.179,-0.249C0.179,-0.206 0.192,-0.17 0.219,-0.142C0.246,-0.114 0.279,-0.1 0.32,-0.1Z" style="fill-rule:nonzero;"/>
        </g>
        <g transform="matrix(12.9035,0,0,12.9035,370.618,254.699)">
            <path d="M0.286,0C0.234,0 0.192,-0.013 0.161,-0.038C0.13,-0.063 0.114,-0.108 0.114,-0.173L0.114,-0.389L0.029,-0.389L0.029,-0.496L0.114,-0.496L0.129,-0.629L0.242,-0.629L0.242,-0.496L0.376,-0.496L0.376,-0.389L0.242,-0.389L0.242,-0.172C0.242,-0.148 0.247,-0.132 0.258,-0.123C0.268,-0.114 0.286,-0.109 0.311,-0.109L0.373,-0.109L0.373,0L0.286,0Z" style="fill-rule:nonzero;"/>
        </g>
        <g transform="matrix(12.9035,0,0,12.9035,379.121,254.699)">
            <path d="M0.338,0.012C0.287,0.012 0.24,0.002 0.199,-0.019C0.158,-0.039 0.125,-0.07 0.101,-0.111C0.076,-0.152 0.064,-0.205 0.064,-0.268L0.064,-0.7L0.192,-0.7L0.192,-0.267C0.192,-0.212 0.205,-0.172 0.232,-0.145C0.258,-0.118 0.294,-0.105 0.341,-0.105C0.387,-0.105 0.423,-0.118 0.45,-0.145C0.477,-0.172 0.49,-0.212 0.49,-0.267L0.49,-0.7L0.618,-0.7L0.618,-0.268C0.618,-0.205 0.605,-0.152 0.58,-0.111C0.555,-0.07 0.521,-0.039 0.479,-0.019C0.436,0.002 0.389,0.012 0.338,0.012Z" style="fill-rule:nonzero;"/>
        </g>
        <g transform="matrix(12.9035,0,0,12.9035,387.909,254.699)">
            <path d="M0.385,0.012C0.314,0.012 0.254,-0.003 0.203,-0.034C0.152,-0.064 0.113,-0.106 0.086,-0.161C0.059,-0.215 0.045,-0.278 0.045,-0.349C0.045,-0.42 0.059,-0.483 0.086,-0.538C0.113,-0.593 0.152,-0.635 0.203,-0.666C0.254,-0.697 0.314,-0.712 0.385,-0.712C0.469,-0.712 0.538,-0.691 0.592,-0.65C0.645,-0.608 0.679,-0.549 0.692,-0.474L0.551,-0.474C0.542,-0.512 0.524,-0.542 0.496,-0.564C0.467,-0.585 0.43,-0.596 0.383,-0.596C0.318,-0.596 0.268,-0.574 0.231,-0.53C0.194,-0.486 0.176,-0.426 0.176,-0.349C0.176,-0.272 0.194,-0.212 0.231,-0.169C0.268,-0.125 0.318,-0.103 0.383,-0.103C0.43,-0.103 0.467,-0.113 0.496,-0.134C0.524,-0.154 0.542,-0.182 0.551,-0.218L0.692,-0.218C0.679,-0.146 0.645,-0.09 0.592,-0.049C0.538,-0.008 0.469,0.012 0.385,0.012Z" style="fill-rule:nonzero;"/>
        </g>
        <g transform="matrix(12.9035,0,0,12.9035,397.418,254.699)">
            <rect x="0.068" y="-0.7" width="0.128" height="0.7" style="fill-rule:nonzero;"/>
        </g>
    </g>
</svg>
